resources/haticons/SVG/monkeytie.svg

<!-- Generated by IcoMoon.io -->
<svg version="1.1" xmlns="http://www.w3.org/2000/svg" width="24" height="24" viewBox="0 0 24 24">
<title>monkeytie</title>
<path fill="#ffc619" d="M20.001 0h-16c-2.21 0-4.001 1.791-4.001 4.001v15.998c0 2.21 1.791 4.001 4.001 4.001h16c2.208 0 3.999-1.791 3.999-4.001v-15.998c0-2.21-1.791-4.001-3.999-4.001zM12.335 16.295l-0.866-6.759-2.579 4.638-2.583-4.623-0.858 6.744h-1.93l1.4-10.086h1.511l2.458 4.591 2.454-4.591h1.514l1.397 10.086zM18.864 10.559h-1.585v3.257c0 1.095 0.087 1.151 1.096 1.151h0.49l-0.171 1.472h-1.293c-1.354 0-1.93-0.95-1.93-1.89v-3.997h-1.027l0.156-1.47h0.855v-1.578l1.79-0.188v1.775h1.588v1.467zM20.541 16.439h-1.484l0.159-1.485h1.487l-0.172 1.479z"></path>
</svg>

<svg xmlns="http://www.w3.org/2000/svg" width="24" height="24"><path fill="#ffc619" d="M20.001 0h-16A4 4 0 0 0 0 4.001v15.998A4 4 0 0 0 4.001 24h16A4 4 0 0 0 24 19.999V4.001A4 4 0 0 0 20.001 0zm-7.666 16.295l-.866-6.759-2.579 4.638-2.583-4.623-.858 6.744h-1.93l1.4-10.086H6.43L8.888 10.8l2.454-4.591h1.514l1.397 10.086zm6.529-5.736h-1.585v3.257c0 1.095.087 1.151 1.096 1.151h.49l-.171 1.472h-1.293c-1.354 0-1.93-.95-1.93-1.89v-3.997h-1.027l.156-1.47h.855V7.504l1.79-.188v1.775h1.588v1.467zm1.677 5.88h-1.484l.159-1.485h1.487l-.172 1.479z"/></svg>
